findly-builder/apps/searchassist/src/assets/icons/search-experience/edit.svg

<svg width="14" height="14" viewBox="0 0 14 14" fill="none" xmlns="http://www.w3.org/2000/svg">
<path d="M11.1682 0.75C10.6353 0.75 10.0983 0.949325 9.69563 1.35611H9.69156L1.86095 9.32096L0.777101 12.5756C0.643812 12.9759 1.02482 13.3565 1.42492 13.2227L4.6759 12.1359L4.76539 12.0505L12.6408 4.30123C13.4503 3.49173 13.4503 2.16561 12.6408 1.35611C12.238 0.953393 11.7011 0.75 11.1682 0.75ZM11.1682 1.7873C11.4326 1.7873 11.697 1.88493 11.9045 2.09239C12.3153 2.50324 12.3153 3.1541 11.9045 3.56495L11.0828 4.37446C10.9689 4.09377 10.7858 3.79275 10.497 3.50394C10.2041 3.21105 9.90309 3.03207 9.62241 2.91817L10.436 2.08832C10.6394 1.889 10.9038 1.78323 11.1682 1.7873ZM8.93494 3.79682C9.12613 3.81309 9.40681 3.88631 9.75665 4.23615C10.1106 4.59005 10.1838 4.87073 10.2041 5.06192C10.2163 5.20837 10.196 5.2287 10.1878 5.25311L4.80607 10.5454C4.69217 10.2891 4.51319 10.0166 4.24471 9.74809C3.9803 9.48368 3.70775 9.30469 3.44741 9.19079L8.74375 3.81309C8.76816 3.80089 8.7885 3.78462 8.93494 3.79682ZM2.73147 10.0532C2.89418 10.0654 3.15453 10.1305 3.5125 10.4884C3.8664 10.8423 3.93148 11.1027 3.94369 11.2613C3.94369 11.2817 3.93962 11.2695 3.94369 11.2857L2.95113 11.6152C2.86978 11.5135 2.78435 11.4118 2.68265 11.3101C2.58503 11.2125 2.48333 11.1271 2.38163 11.0498L2.7152 10.0532C2.7274 10.0572 2.7152 10.0532 2.73147 10.0532Z" fill="#5F6368"/>
</svg>

<svg width="14" height="14" fill="none" xmlns="http://www.w3.org/2000/svg"><path d="M11.168.75c-.533 0-1.07.2-1.472.606h-.004L1.86 9.321.777 12.576c-.133.4.248.78.648.647l3.25-1.087.09-.085 7.876-7.75a2.09 2.09 0 0 0 0-2.945A2.082 2.082 0 0 0 11.168.75Zm0 1.037c.265 0 .529.098.737.305.41.411.41 1.062 0 1.473l-.822.81a2.623 2.623 0 0 0-.586-.871 2.614 2.614 0 0 0-.875-.586l.814-.83c.203-.199.468-.305.732-.3Zm-2.233 2.01c.191.016.472.09.822.44.354.353.427.634.447.825.012.146-.008.167-.016.191l-5.382 5.292a2.662 2.662 0 0 0-.561-.797 2.617 2.617 0 0 0-.798-.557l5.297-5.378c.024-.012.045-.028.19-.016ZM2.73 10.053c.163.012.424.077.782.435.353.354.418.615.43.773 0 .02-.003.009 0 .025l-.992.33a2.931 2.931 0 0 0-.57-.565l.334-.998c.012.004 0 0 .016 0Z" fill="#5F6368"/></svg>
